lib/logo_updates/nrk-logo-nrk-3-on-dark.svg

<svg width="162" height="48" viewBox="0 0 162 48" fill="none" xmlns="http://www.w3.org/2000/svg">
<path d="M0 45V3.00381H13.7802V45H0ZM32.5283 9.68773L40.4532 45H25.3721L15.9092 3.00381H24.3676C26.3072 2.97864 28.1892 3.66237 29.6607 4.92636C31.1347 6.13734 32.1473 7.81844 32.5283 9.68773ZM42.5233 45V3.00381H56.3035V45H42.5233ZM66.7116 18.9743C65.2267 18.9888 63.7656 18.6003 62.4839 17.8504C61.2193 17.1194 60.1688 16.0689 59.438 14.8041C58.6872 13.5222 58.2986 12.0607 58.3134 10.5751C58.2964 9.09861 58.6853 7.64583 59.438 6.3755C60.1766 5.12447 61.2259 4.08533 62.4839 3.35882C63.766 2.60976 65.2269 2.2213 66.7116 2.23484C68.1877 2.21895 69.6399 2.60775 70.9108 3.35882C72.1562 4.09169 73.1943 5.12996 73.9271 6.3755C74.6789 7.64618 75.0677 9.09873 75.0517 10.5751C75.0655 12.0605 74.6769 13.5218 73.9271 14.8041C73.202 16.0633 72.1627 17.113 70.9108 17.8504C69.6398 18.6029 68.1866 18.9918 66.7097 18.9743H66.7116ZM77.1807 45V3.00381H90.9621V45H77.1807ZM108.408 25.9538C108.447 25.9946 108.742 26.4776 109.295 27.403C109.848 28.3283 110.567 29.5114 111.454 30.952C112.341 32.392 113.277 33.9199 114.262 35.536C115.247 37.1521 116.174 38.6803 117.043 40.1202C117.908 41.5602 118.894 43.1867 120 45H104.859C103.912 43.4621 103.055 42.0721 102.286 40.83C101.517 39.5878 100.7 38.2471 99.8334 36.8077C98.9653 35.3698 98.1071 33.9699 97.2587 32.6081C96.4103 31.2464 95.6813 30.0536 95.0714 29.0297C94.459 28.0051 94.0348 27.3149 93.7989 26.9594C93.2139 26.0771 92.8677 25.058 92.7944 24.0019C92.853 22.9883 93.1791 22.0084 93.7397 21.1619C93.9762 20.7676 94.41 20.0675 95.0409 19.062C95.6717 18.0564 96.411 16.8637 97.2587 15.4835C98.1064 14.1034 98.9647 12.6936 99.8334 11.2543C100.702 9.81501 101.519 8.46432 102.286 7.20247C103.056 5.94193 103.914 4.54205 104.859 3.00285H120L108.289 22.1082C107.926 22.6755 107.722 23.3292 107.697 24.0019C107.736 24.7081 107.983 25.3871 108.406 25.9538H108.408Z" fill="white"/>
<path d="M160.896 29.2639C160.486 28.0832 159.842 26.9971 159.004 26.0703C158.132 25.1328 157.074 24.3875 155.898 23.8821C154.551 23.3028 153.126 22.9242 151.669 22.7584V22.581C153.438 22.0186 155.084 21.1255 156.52 19.9492C157.8 18.8989 158.856 17.6016 159.624 16.1346C160.351 14.7273 160.727 13.1648 160.719 11.5807C160.746 10.2362 160.441 8.90571 159.832 7.707C159.209 6.54717 158.317 5.55348 157.231 4.80909C155.967 3.94932 154.552 3.3372 153.06 3.00527C151.227 2.5895 149.351 2.39102 147.472 2.41388C146.235 2.41773 145 2.50667 143.775 2.68003C142.508 2.85503 141.254 3.11182 140.021 3.44884C138.833 3.77029 137.683 4.21636 136.59 4.77955L137.417 9.45168C138.285 9.09684 139.123 8.79128 139.932 8.535C140.741 8.27873 141.519 8.07173 142.267 7.91402C143.016 7.75762 143.746 7.63929 144.456 7.55912C145.144 7.48152 145.834 7.44204 146.526 7.44085C147.778 7.42018 149.028 7.53924 150.253 7.79574C151.141 7.97422 151.984 8.3259 152.736 8.8307C153.349 9.26256 153.831 9.85634 154.126 10.5458C154.439 11.3253 154.59 12.1603 154.57 13.0001C154.587 14.1537 154.312 15.2928 153.772 16.312C153.222 17.317 152.454 18.186 151.525 18.8551C150.477 19.6045 149.306 20.1649 148.065 20.511C146.622 20.9197 145.128 21.1189 143.629 21.1025H142.505L141.796 25.7155H143.688C145.434 25.6919 147.177 25.8405 148.893 26.159C150.177 26.3887 151.409 26.8495 152.529 27.5192C153.445 28.0772 154.192 28.8747 154.689 29.8258C155.182 30.848 155.425 31.9732 155.397 33.1081C155.429 34.2562 155.207 35.3971 154.747 36.4496C154.308 37.3837 153.623 38.1809 152.766 38.7561C151.741 39.4241 150.597 39.8862 149.396 40.1163C147.809 40.4337 146.193 40.5824 144.575 40.5599C143.984 40.5599 143.402 40.5402 142.83 40.5007C142.257 40.4613 141.656 40.4022 141.026 40.3233C140.396 40.2445 139.736 40.136 139.046 39.998C138.356 39.86 137.597 39.6925 136.769 39.4953L136 44.5223C136.866 44.68 137.704 44.8279 138.514 44.9659C139.323 45.1039 140.121 45.2222 140.908 45.3208C141.696 45.418 142.466 45.487 143.215 45.5277C143.965 45.5685 144.694 45.5882 145.403 45.5868C147.288 45.6015 149.17 45.4331 151.022 45.0841C152.596 44.7904 154.119 44.2725 155.546 43.5465C156.792 42.9144 157.913 42.063 158.857 41.033C159.747 40.0443 160.43 38.8882 160.868 37.6324C161.338 36.2524 161.568 34.8023 161.549 33.3447C161.566 31.9571 161.345 30.5768 160.896 29.2639Z" fill="#AAE4B9"/>
</svg>

<svg xmlns="http://www.w3.org/2000/svg" viewBox="0 0 162 48"><path fill="#fff" d="M0 45V3.004h13.78V45H0ZM32.528 9.688 40.453 45h-15.08L15.908 3.004h8.459a7.965 7.965 0 0 1 5.293 1.922 8.31 8.31 0 0 1 2.867 4.762ZM42.523 45V3.004h13.78V45h-13.78Zm24.189-26.026a8.213 8.213 0 0 1-4.228-1.124 8.336 8.336 0 0 1-3.046-3.046 8.206 8.206 0 0 1-1.125-4.229 8.056 8.056 0 0 1 1.125-4.2 8.437 8.437 0 0 1 3.046-3.016 8.232 8.232 0 0 1 4.228-1.124 8.083 8.083 0 0 1 4.199 1.124 8.503 8.503 0 0 1 3.016 3.016 8.075 8.075 0 0 1 1.125 4.2 8.226 8.226 0 0 1-1.125 4.23 8.4 8.4 0 0 1-3.016 3.045 8.059 8.059 0 0 1-4.201 1.124h.002ZM77.18 45V3.004h13.781V45H77.181Zm31.227-19.046c.039.04.334.524.887 1.449.553.925 1.272 2.108 2.159 3.549a1143.28 1143.28 0 0 1 5.589 9.168A854.89 854.89 0 0 0 120 45h-15.141c-.947-1.538-1.804-2.928-2.573-4.17a382.214 382.214 0 0 1-2.453-4.022 351.934 351.934 0 0 0-2.574-4.2 213.445 213.445 0 0 1-2.188-3.578 62.753 62.753 0 0 0-1.272-2.07 6.119 6.119 0 0 1-1.005-2.958 5.744 5.744 0 0 1 .946-2.84c.236-.394.67-1.095 1.3-2.1.632-1.006 1.371-2.198 2.219-3.579a636.03 636.03 0 0 0 2.574-4.229c.869-1.439 1.686-2.79 2.453-4.052.77-1.26 1.628-2.66 2.573-4.2H120l-11.711 19.106a3.773 3.773 0 0 0-.592 1.894c.039.706.286 1.385.709 1.952h.002Z"/><path fill="#AAE4B9" d="M160.896 29.264a9.323 9.323 0 0 0-1.892-3.194 9.207 9.207 0 0 0-3.106-2.188 14.996 14.996 0 0 0-4.229-1.124v-.177a14.668 14.668 0 0 0 4.851-2.632 12.336 12.336 0 0 0 3.104-3.814 9.815 9.815 0 0 0 1.095-4.554 8.19 8.19 0 0 0-.887-3.874 8.242 8.242 0 0 0-2.601-2.898 12.08 12.08 0 0 0-4.171-1.804 23.947 23.947 0 0 0-5.588-.591 26.98 26.98 0 0 0-3.697.266 29.597 29.597 0 0 0-3.754.769 17.429 17.429 0 0 0-3.431 1.33l.827 4.673c.868-.355 1.706-.66 2.515-.917a24.454 24.454 0 0 1 2.335-.621 23.76 23.76 0 0 1 2.189-.355 18.743 18.743 0 0 1 2.07-.118 16.83 16.83 0 0 1 3.727.355 6.89 6.89 0 0 1 2.483 1.035 4.046 4.046 0 0 1 1.39 1.715A6.19 6.19 0 0 1 154.57 13a6.859 6.859 0 0 1-.798 3.312 7.675 7.675 0 0 1-2.247 2.543 11.053 11.053 0 0 1-3.46 1.656 15.65 15.65 0 0 1-4.436.591h-1.124l-.709 4.613h1.892a26.552 26.552 0 0 1 5.205.444c1.284.23 2.516.69 3.636 1.36a5.901 5.901 0 0 1 2.16 2.307 7.15 7.15 0 0 1 .708 3.282 7.8 7.8 0 0 1-.65 3.342 5.696 5.696 0 0 1-1.981 2.306 9.417 9.417 0 0 1-3.37 1.36 22.955 22.955 0 0 1-4.821.444c-.591 0-1.173-.02-1.745-.06a32.456 32.456 0 0 1-1.804-.177c-.63-.078-1.29-.187-1.98-.325a64.458 64.458 0 0 1-2.277-.503L136 44.522c.866.158 1.704.306 2.514.444.809.138 1.607.256 2.394.355a33.88 33.88 0 0 0 2.307.207c.75.04 1.479.06 2.188.059a29.118 29.118 0 0 0 5.619-.503 16.753 16.753 0 0 0 4.524-1.538 11.625 11.625 0 0 0 3.311-2.513 10.008 10.008 0 0 0 2.011-3.4c.47-1.38.7-2.83.681-4.288a12.151 12.151 0 0 0-.653-4.081Z"/></svg>
